X:12
T:Five String Jig
C:Chris Perry
S:The Fiddle Player's Tunebook 1
M:6/8
L:1/8
K:D
A|
"D"d2 d def |"D"d2 d def |"G"g2 e f2 d |"A"efe ecA |
"D"d2 d def |"D"d2 d def |"G"g2 e f2 d |"A"Adc "D"d2 A |
"D"d2 d def |"D"d2 d def |"G"g2 e f2 d |"A"ecB A2 A |
"D"d2 d def |"D"d2 d def |"G"gfe fed |"A"Adc "D"d2 |]
e|
"A"c2 e A2 e |"D"def A2 f |"A"efe gfe |"D"faa a2 e |
"A"c2 e A2 e |"D"def A2 f |"G"gfe "D"fed |"A"Adc "D"d2 e |
"A"c2 e A2 e |"D"def A2 f |"A"efe gfe |"D"faa a2 f |"G"gba gfe |
"D"fag fed |"A"ege cde |"D"edc d3 ||
